imgs/email.svg

<svg width="22" height="16" viewBox="0 0 22 16" fill="none" xmlns="http://www.w3.org/2000/svg">
<path d="M3.575 6.97519e-09H18.425C19.3382 -5.43467e-05 20.2167 0.317554 20.8805 0.887671C21.5442 1.45779 21.9428 2.23719 21.9945 3.066L22 3.25V12.75C22.0001 13.5801 21.6507 14.3788 21.0236 14.9822C20.3964 15.5856 19.5391 15.948 18.6274 15.995L18.425 16H3.575C2.66185 16.0001 1.78329 15.6824 1.11955 15.1123C0.455803 14.5422 0.0571985 13.7628 0.00550013 12.934L7.6727e-09 12.75V3.25C-5.97814e-05 2.41986 0.34931 1.62117 0.976439 1.01777C1.60357 0.414367 2.46091 0.0519987 3.3726 0.00500012L3.575 6.97519e-09ZM20.35 5.373L11.385 9.663C11.2838 9.71161 11.1725 9.74054 11.0583 9.74795C10.9441 9.75535 10.8295 9.74106 10.7217 9.706L10.6161 9.664L1.65 5.374V12.75C1.65002 13.1892 1.83169 13.6123 2.15895 13.9354C2.48621 14.2585 2.93513 14.4579 3.4166 14.494L3.575 14.5H18.425C18.9083 14.5 19.3739 14.3347 19.7293 14.037C20.0847 13.7392 20.3039 13.3309 20.3434 12.893L20.35 12.75V5.373ZM18.425 1.5H3.575C3.09189 1.50002 2.62645 1.66517 2.27107 1.96268C1.91569 2.26019 1.69635 2.6683 1.6566 3.106L1.65 3.25V3.679L11 8.152L20.35 3.678V3.25C20.35 2.81065 20.1681 2.38739 19.8406 2.06429C19.5132 1.74119 19.064 1.5419 18.5823 1.506L18.425 1.5Z" fill="#006AFF"/>
</svg>

<svg width="22" height="16" fill="none" xmlns="http://www.w3.org/2000/svg"><path d="M3.575 0h14.85c.913 0 1.792.318 2.456.888.663.57 1.062 1.35 1.113 2.178L22 3.25v9.5c0 .83-.35 1.629-.976 2.232a3.736 3.736 0 0 1-2.397 1.013l-.202.005H3.575a3.775 3.775 0 0 1-2.455-.888c-.664-.57-1.063-1.35-1.114-2.178L0 12.75v-9.5c0-.83.35-1.629.976-2.232A3.735 3.735 0 0 1 3.373.005L3.575 0ZM20.35 5.373l-8.965 4.29a.888.888 0 0 1-.663.043l-.106-.042-8.966-4.29v7.376c0 .44.182.862.509 1.185.327.323.776.523 1.258.559l.158.006h14.85c.483 0 .949-.165 1.304-.463.356-.298.575-.706.614-1.144l.007-.143V5.373ZM18.425 1.5H3.575c-.483 0-.949.165-1.304.463a1.695 1.695 0 0 0-.614 1.143l-.007.144v.429L11 8.152l9.35-4.474V3.25c0-.44-.182-.863-.51-1.186a2.004 2.004 0 0 0-1.258-.558l-.157-.006Z" fill="#006AFF"/></svg>
